symbols/web/bookmark_remove/materialsymbolsrounded/bookmark_remove_wght300_24px.svg

<svg xmlns="http://www.w3.org/2000/svg" height="24" width="24"><path d="M6.775 19.7q-.45.2-.863-.063-.412-.262-.412-.762V5.3q0-.75.525-1.275Q6.55 3.5 7.3 3.5H13V5H7.3q-.1 0-.2.1t-.1.2v12.65l5-2.15 5 2.15V11h1.5v7.875q0 .5-.413.762-.412.263-.862.063L12 17.45ZM7 5h6-1Zm8.75 2q-.325 0-.537-.213Q15 6.575 15 6.25q0-.325.213-.537.212-.213.537-.213h4q.325 0 .538.213.212.212.212.537 0 .325-.212.537Q20.075 7 19.75 7Z"/></svg>

<svg xmlns="http://www.w3.org/2000/svg" height="24" width="24"><path d="M6.775 19.7Q6.325 19.9 5.912 19.637Q5.5 19.375 5.5 18.875V5.3Q5.5 4.55 6.025 4.025Q6.55 3.5 7.3 3.5H13Q13 3.925 13 4.25Q13 4.575 13 5H7.3Q7.2 5 7.1 5.1Q7 5.2 7 5.3V17.95L12 15.8L17 17.95V11Q17.425 11 17.75 11Q18.075 11 18.5 11V18.875Q18.5 19.375 18.087 19.637Q17.675 19.9 17.225 19.7L12 17.45ZM7 5Q7 5 7.1 5Q7.2 5 7.3 5H13Q13 5 13 5Q13 5 13 5Q13 5 13 5Q13 5 13 5H12ZM15.75 7Q15.425 7 15.213 6.787Q15 6.575 15 6.25Q15 5.925 15.213 5.713Q15.425 5.5 15.75 5.5H19.75Q20.075 5.5 20.288 5.713Q20.5 5.925 20.5 6.25Q20.5 6.575 20.288 6.787Q20.075 7 19.75 7Z"/></svg>
